X:18472
T:Waltz. CJF.125
M:3/8
L:1/16
Q:60
S: C.J.Fox MS, 1829/33, Beverley,E.Yorks.
R:Waltz
O:England
A:East Yorkshire
B:Kidson Coll.Mitchell Lib.M1805
Z:P J Headford 200
K:D
fa|ge c2 af|d2d2f2|ecAgfd|ecAgef|!ge c2 af|.d2.d2f2|(Ag) (Af) (Ae)|d4:|:
